X:199
T:Firr Tree. Ru1.199, The
%%VWML:RutherfordVol1-2248-p80-0p80
Z:Transcription by Village Music Project, Steve Mansfield July 2015
F:http://www.village-music-project.org.uk/
F:http://www.vwml.org/record/RutherfordVol1/2248/p80
L:1/8
W:The first Man Cast off & turn the third Woman
W:& stand in the 2d Man's Place .| The first Woman
W:Does the same :| Hands round four at Bottom .|.
W:Right Hand & Left at Top :|
Q:2/4=60
K:Dmix
|:ca2f gfeg | fdde c>dec | Aa2f gfeg | fd d/d/d ec A2 :|
fd d/d/d gfeg | fd d/d/d eccg | fd d/d/d ge e/e/e | fd d/d/d ec A2 :|]
